X:1
T:Title
%%score { ( 1 3 ) | ( 2 4 ) }
L:1/8
Q:1/4=124
M:3/4
K:Ab
V:1 treble nm="Grand Piano"
V:3 treble 
V:2 bass 
V:4 bass 
V:1
 [CE]2 [DF]2 [CE]2 | E2 A2 [Ec]2 | B2 A2 B2 | [Ec]4 [CA]2 | [A,DF]2 [A,FA]2 [A,DF]2 | E2 z2 [Ec]2 | %6
w: Powell~G.~Fithian * *||||||
 [EB]2 [=DB]2 B2 | B6 | [A,CE]2 [A,DF]2 [G,CE]2 | [A,C]4 [Ec]2 | B2 A2 B2 | [Ec]4 [CA]2 | %12
w: ||||||
 [FA]2 [EG]2 F2 | E2 A2 c2 | c4 B2 | [CA]6 | z2 F2 G2 | A2 G2 A2 | B2 A2 B2 | c6 | F2 A2 F2 | %21
w: |||||||||
 E2 A2 c2 | c4 B2 | [CA]6 |] %24
w: |||
V:2
 [A,,A,]2 [A,,A,]2 [A,,A,]2 | [A,,A,]4 [A,,A,]2 | [E,E]4 z2 | [A,,A,]4 [A,,A,]2 | D,2 D,2 D,2 | %5
 z2 A2 [A,,A,]2 | [B,,G,]2 F,2 [A,F]2 | E4 z2 | A,,2 A,,2 A,,2 | z2 A2 [A,,A,]2 | %10
 [E,E]2- [E,F,E]2 [E,G,E]2 | [A,,A,]4 [A,,A,]2 | [D,A,]2 [D,A,]2 [D,A,D]2 | [E,A,C]4 [E,A,E]2 | %14
 [E,G,E]4 [E,G,D]2 | [A,,E,]6 | E,2- [E,A,]2 [E,B,E]2 | [E,CE]2 [E,B,E]2 [E,CE]2 | D2 C2 [E,G,E]2 | %19
 [A,E]6 | D2 F2 [D,A,D]2 | [E,A,C]4 [E,A,E]2 | [E,G,E]4 [E,G,D]2 | [A,,E,A,]6 |] %24
V:3
 x6 | C4 z2 | x6 | x6 | x6 | [A,C]4 z2 | x6 | z2 z2 D2 | x6 | E2 z2 z2 | x6 | x6 | x6 | x6 | x6 | %15
 x6 | E4 z2 | x6 | x6 | x6 | x6 | x6 | x6 | x6 |] %24
V:4
 x6 | x6 | G,2 F,2 [E,G,E]2 | x6 | x6 | A,,4 z2 | z2 B,,4 | [E,G,]6 | x6 | A,,4 z2 | G,2 z2 z2 | %11
 x6 | x6 | x6 | x6 | x6 | G,2 z2 z2 | x6 | [E,E]4 z2 | x6 | [D,A,]4 z2 | x6 | x6 | x6 |] %24

